X:1
T:Là ci darem la mano
T:Wolfgang Amadeus Mozart
T:Lorenzo da Ponte
T:Don Giovanni / Zerlina
%%score 1 2 { 3 | 4 }
L:1/8
Q:1/4=54
M:2/4
K:A
V:1 treble nm="Soprano" snm="S."
V:2 bass nm="Bass" snm="B."
V:3 treble nm="Piano" snm="Pno."
V:4 bass 
V:1
"^Adagio" z4 | z4 | z4 | z4 | z4 | z4 | z4 | z2 z E | A>B cA | F B2 A | G>G AB | (BE) z3/2 E/ | %12
w: |||||||Vor-|rei, e non vor-|re- i, mi|tre- ma~un po- co~il|cor * fe-|
w: |||||||Ach,|soll ich wohl es|wa- gen? Mein|Herz, o sag es|mir! * Ich|
 A>B cA | (F B2 A) | (A/G/)F/E/ EF/G/ | (A/c/) (e2 B) | (d/c/)(B/A/) Ac/B/ | A2 z2 | z4 | z2 z B | %20
w: li- ce,~è ver sa-|rei _ _|ma * può bur- lar- mi an-|cor, * ma _|può * bur- * lar- mi an-|cor!||Mi|
w: füh- le froh dich|schla- gen und|steh * doch * zit- ternd *|hier, * * und|steh * doch * zit- ternd *|hier.||Ma-|
 (^A/B/)(c/B/) (A/B/)(=A/F/) | GG z2 | z4 | z2 z (B | B)B/B/ (^A/B/)(=A/B/) | %25
w: fà * pie- * tà * Ma- *|set- to!||Pre-|* sto non son * più *|
w: set- * to * wür- * de *|ster- ben!||Kaum|* kann ich wi- * der- *|
 (G/B/)B/B/ (^A/B/)(=A/B/) | (G/B/)B/B/ (^A/B/)(=A/B/) | GE z2 | z4 | z4 | z2 z A | G>G AB | %32
w: for- * te, non son * più *|for- * te, non son * più *|for- te.|||Vor-|rei, e non vor-|
w: stre- * ben, kaum wi- * der- *|stre- * ben, kaum wi- * der- *|stre- ben.|||Ach,|soll ich wohl es|
 BE z2 | z4 | z2 z d | d/GG/ GA/B/ | A2 z2 | z f3 | (f/G/)G/G/ (G/4A/4B/4c/4)d/B/ | A2 z e | %40
w: re- i,||mi|tre- ma un po- co il|cor;|mà|_ _ può bur- lar- * * * mi an-|cor. Mi|
w: wa- gen?||Mein|Herz, * o sag es *|mir!|Ich|_ _ ste- he zit- * * * ternd *|hier. Ma-|
 (^d/e/)(f/e/) (d/e/)(=d/B/) | cc z (e | e)e/e/ (^d/e/)(=d/e/) | (e/c/)c/c/ (=c/^c/)(B/c/) | %44
w: fà * pie- * tà * Ma- *|set- to; pre|_ sto non son * più *|for- * te, non son * più *|
w: set- * to * wür- * de *|ster- ben! Kaum|_ kann ich wi- * der- *|stre- * ben, kaum wi- * der- *|
 (c/A/)A/A/ (G/A/)(=G/A/) | (A/F/)F z2 | z4 | z2 z f | (e2 !breath!d) B | %49
w: for- * te, non son * più *|for- * te;||An-|diam! * An-|
w: stre- * ben, kaum wi- * der- *|stre- * ben!||Wohl-|an! * So|
[M:6/8][Q:1/4=108]"^." c2 B c2 d | B e2- e2 B | c2 B c2 d | B e2- e2 B | c3 (dfd) | c3 B3 | A3 z3 | %56
w: diam, an- diam mio|be- ne, * a|ri- sto- rar le|pe- ne, * d'un|in- no- * *|cen- te~~a-|mor.|
w: lass uns oh- ne|Wei- len * der|Lust ent- ge- gen-|ei- len * und|se- lig * *|sein fort-|an!|
 z3 z2 B | c2 B c2 d | B e2- e2 B | c2 B c2 d | B e2- e2 B | c3 (dfd) | c3 B3 | A2 z z3 | z6 | z6 | %66
w: An-|diam, an- diam, mio|be- ne * a|ri- sto- rar le|pe- ne, * d'un|in- no- * *|cen- te~~a-|mor.|||
w: So|lass uns oh- ne|Wei- len * der|Lust ent- ge- gen-|ei- len * und|se- lig * *|sein fort-|an!|||
 z3 e3 | c z z z3 | z3 A3 | f z z z3 | z6 | z3 z2 e | c2 c B2 B | c2- c z2 e | c2 c B2 B | c3 e3 | %76
w: An-|diam!|An-|diam!||An-|diam, mio bene, an-|diam, * le|pe- ne~a ri- sto-|rar d'un|
w: Wohl-|an!|Wohl-|an!||So|lass uns ei- len,|ei- len und|se- lig sein fort-|an, ja|
 (c>d)c (B>A)B | A2 z z3 | z6 | z6 | z6 | z6 |] %82
w: in- * no- ce- te- a-|mor!|||||
w: se- * lig sein * fort|an!|||||
V:2
 A,A,/B,/ CA, | F, B,3 | G,G,/G,/ A,B, | E,2 z2 | A,A,/B,/ CA, | F, B,2 A, | %6
w: Là ci da- rem la|ma- no,|là mi di- rai di|sì;|ve- di, non è lon-|ta- no par-|
w: Reich mir die Hand, mein|Le- ben,|komm in mein Schloss mit|mir!|Kannst du noch wi- der-|stre- ben? Es|
 (A,/G,/)(F,/E,/) E,(F,/G,/) | A,2 z2 | z4 | z4 | z4 | z4 | z4 | z4 | z4 | z4 | z4 | z4 | %18
w: tiam, * ben * mio, da *|qui.|||||||||||
w: ist * nicht * weit von *|hier.|||||||||||
 B,G,/E,/ C(E/C/) | (B,>G,) B, z | z4 | z4 | B,G,/E,/ CE/C/ | (B,>G,) B, z | z4 | z4 | z4 | %27
w: Vie- ni, mio bel di- *|let- * to!|||Io can- gie- rò tu- a|sor- * te.||||
w: Lass nicht um- sonst mich *|wer- * ben!|||Glück soll dich stets um- *|ge- * ben!||||
 z2 B,G, | D2 B, z | A,A,/B,/ CA, | F,B, z2 | z4 | z4 | A,A,/B,/ CA, | D2 z2 | z4 | %36
w: Vie- ni,|vie- ni!|Là ci da- rem la|ma- no,|||là mi di- rai di|sì;||
w: Komm, o|komm doch!|Reich mir die Hand, mein|Le- ben!|||Komm in mein Schloss mit|mir;||
 z/ A,/A,/B,/ CA, | D2 z2 | z4 | CA,/E,/ D>G, | A,A, z2 | CA,/E,/ D>G, | A,A, z2 | z4 | z4 | %45
w: par- tiam, ben mio, da|qui!||Vie- ni, mio bel di-|let- to!|io can- gie- rò tua|sor- te.|||
w: es ist nicht weit von|hier.||Lass nicht um- sonst mich|wer- ben!|Glück soll dich stets um-|ge- ben!|||
 z2 z D | (DG,) z E | (EA,) z2 | z3 B,, |[M:6/8] A,2 G, A,2 B, | G, E,2- E,2 G, | A,2 G, A,2 B, | %52
w: An-|diam, * an-|diam! *|An-|diam, an- diam, mio|be- ne, _ a|ri- sto- rar le|
w: O|komm, * o|komm! *|So|lass uns oh- ne|Wei- len _ der|Lust ent- ge- gen-|
 G, E,2- E,2 G, | A,3 (B,DB,) | A,3 G,3 | A,3 z3 | z3 z2 G, | A,2 G, A,2 B, | G, E,2- E,2 G, | %59
w: pe- ne _ d'un|in- no _ _|cen- te~~a-|mor.|An-|diam, an- diam, mio|be- ne, _ a|
w: ei- len * und|se- lig _ _|sein fort-|an!|So|lass uns oh- ne|Wei- len _ der|
 A,2 G, A,2 B, | G, E,2- E,2 G, | A,3 (B,DB,) | A,3 G,3 | A,2 z z3 | z3 A,3 | D z z z3 | z6 | z6 | %68
w: ri- sto- rar le|pe- ne, * d'un|in- no _ _|cen- to~~a-|mor.|An-|diam!|||
w: Lust ent- ge- gen-|ei- len * und|se- lig _ _|sein fort-|an!|O|komm!|||
 z6 | z6 | z3 E,3 | A, z z z2 C | A,2 A, G,2 G, | (A,2 A,) z2 C | A,2 A, G,2 G, | A,3 C3 | %76
w: ||An-|diam! An-|diam, mio bene, an-|diam, * le|pe- ne~a ri- sto-|rar d'un|
w: ||Wohl-|an! So|lass uns ei- len,|ei- len und|se- lig sein fort-|an, ja|
 (A,>B,)A, (G,>F,)G, | A,2 z z3 | z6 | z6 | z6 | z6 |] %82
w: in- * no- cen- te- a-|mor!|||||
w: se- * lig sein * fort|an!|||||
V:3
 z [CEA] z [CEA] | z [DFB] z [B,FA] | z [B,EG] z [A,^DF] | [G,E][Bde] [Ace][GBe] | %4
 [Ace][CEA] z [CEA] | z [DFB] z [DFA] | z [B,DEG] z [B,DEG] | [A,CEA][Ee] [Fd][GB] | %8
 [Ac][CEA] z [CEA] | z [B,FB] z [B,FA] | z [B,EG] z [A,^DF] | E[Bde] [Ace][GBe] | %12
 [Ace][CEA] z [CEA] | z [B,FB] z [B,FA] | z [B,DG] z [B,DG] | z [A,EA] z [EBd] | z [EAc] z [DEG] | %17
 [CEA][EAc] [CEA] z | [EGB]E [EAc]E | [EGB]E [EG][GB] | [B,FB]3 [B,FA] | %21
 [B,EG][EG]/4[FA]/4[GB]/4[FA]/4 [EG]E | [EGB]E [EAc]E | [EGB]E [EG][GB] | [B,FB]3 [B,FA] | %25
 [B,EG]2 [B,FA]2 | [B,EG]2 [B,FA]2 | [B,EG][B,EG] [EG][GB] | %28
 [Bd]3/2(3[ce]/4[Bd]/4[Ac]/4 [GB]/[Fd]/[Ec]/[DB]/ | [CA][CEA] z [CEA] | z [B,FB] z [B,FA] | %31
 z [B,EG] z [A,^DF] | E[Bde] [Ace][GBe] | [Ace][CEA] z [CEA] | [DAd]2 z2 | [B,DG]2- [B,DG]2 | %36
 [CEA][CEA] z [CEA] | [DAd] z [DB][CA] | [B,DG]4 | [CA]/[CEA]/ z/ [EA]/ [DG]/[DG]/ z/ [EGB]/ | %40
 [EA][Ae] z [Bd] | [Ac]/[Ac]/ z/ [EA]/ [DG]/[DG]/ z/ [EGB]/ | [EA] z [EBd]2 | [EAc] z [CGB]2 | %44
 [CFA] z [A,E=G]2 | [A,DF][A,DF] [Fd] z | z [B,EG] [Ge] z | z [CFA] [Af] z | [B,D]3 G | %49
[M:6/8] [Ac]E[GB] [Ac]E[Bd] | [GB][EG][EFA] [EGB][EAc][EBd] | [Ac]E[GB] [Ac]E[Bd] | %52
 [GB][EG][EFA] [EGB][EAc][EBd] | [EAc][ce][EAc] [FBd][df][FBd] | [EAc][ce][EAc] [EGB][Bd][DGB] | %55
 [CEA][ca][ca] [eg][Be][c=g] | [df][^Ad][=A=f] [Ge][GB][Ed] | [Ac]E[GB] [Ac]E[Bd] | %58
 [GB][EG][EFA] [EGB][EAc][EBd] | [Ac]E[GB] [Ac]E[Bd] | [GB][EG][EFA] [EGB][EAc][EBd] | %61
 [EAc][ce][EAc] [FBd][df][FBd] | [EAc][ce][EAc] [EGB][Bd][EGB] | [CEA]2 c [=Gc]>B[Gc] | %64
 [Fd]>e[Fd] _A>B[=Gc] | [Fd] z z/ (3(d/4c/4B/4 A3) | [Ac]>[Bd][Ac] [GB]>[FA][GB] | %67
 [Ac] z c [=Gc]>B[Gc] | [Fd]>e[Fd] [=Gc]>B[Gc] | [Fd] z3/2 (3(d/4c/4B/4 A3) | %70
 [Ac]>[Bd][Ac] [GB]>[FA][GB] | [Ac] z3/2 (3(d/4c/4B/4 A3) | [Ac]>[Bd][Ac] [GB]>[FA][GB] | %73
 [Ac] z z/ (3(d/4c/4B/4 A3) | [Ac]>[Bd][Ac] [GB]>[FA][GB] | [Ac] z z/ (3(d/4c/4B/4 A3) | %76
 [Ac]>[Bd][Ac] [GB]>[FA][GB] | [Ac]2 z [GB]>[FA][GB] | [Ac]>[Bd][Ac] [GB]>[FA][GB] | %79
 [Ac]2 z [EGB]>[FA][EGB] | [EAc]>[Bd][EAc] [EGB]>[FA][DGB] | [CEA]2 z2 z2 |] %82
V:4
 A,, z A,, z | D, z ^D, z | E, z B,, z | E,,G, A,B, | A, z A,, z | D, z E, z | E, z E, z | %7
 A,,C B,E, | A,, z A,, z | D, z ^D, z | E, z B,, z | E,,G, A,B, | A, z A,, z | D, z D, z | %14
 E, z E, z | C, z G,, z | A,, z E, z | A,,A, A,, z | E, z E, z | E,E, E, z | ^D,4 | E,E, E, z | %22
 E, z E, z | E,E, E, z | ^D,4 | E,2 ^D,2 | E,2 ^D,2 | E, z E, z | E,2- E, z | A,, z A,, z | %30
 D, z ^D, z | E, z B,, z | E,,2 z2 | A,, z A, z | F,2 z2 | E,2- E,2 | A,, z A, z | F,2 z2 | E,4 | %39
 A,/E,/C/E,/ B,/E,/D/E,/ | C z G, z | A,/E,/C/E,/ B,/E,/D/E,/ | C z G,2 | A, z =F,2 | F, z C,2 | %45
 D,D, B,, z | z E, C, z | z F, D, z | [G,,E,]3 z |[M:6/8] A,,6 | A,,6 | A,,6 | A,,6 | A,,3 D,3 | %54
 E,3 E,,3 | A,,6 | A,,6 | A,,6 | A,,6 | A,,6 | A,,3 A,,- A,,2 | A,,3 D,3 | E,3 E,,3 | %63
 A,,2 z A,2 A, | D2 D A,2 A, | D z z z3 | E,6 | A, z z A,2 A, | D2 D A,2 A, | D z z z3 | E,3 E,3 | %71
 A,2 z z3 | E,3 E,3 | A, z z z3 | E,3 E,3 | A,2 z z2 z/ (3(A,/4G,/4F,/4) | E,2 E, E,2 E, | %77
 A,,2 z E,2 z | A,2 z E,2 z | A,,2 z E,2 E, | A,2 A, E,2 E, | A,,2 z2 z2 |] %82

